icon/pk/skating.svg

<svg width="48" height="48" fill="none" xmlns="http://www.w3.org/2000/svg"><path d="M44 4H28v8h16V4Z" stroke="#000" stroke-width="4" stroke-miterlimit="2" stroke-linecap="round" stroke-linejoin="round"/><path d="M44 12v22c0 1.11-.89 2-2 2H8c-2.21 0-4-1.79-4-4v-6c0-4.42 3.58-8 8-8h16v-6h16Z" fill="#2F88FF" stroke="#000" stroke-width="4" stroke-miterlimit="2" stroke-linecap="round" stroke-linejoin="round"/><path d="M14 24v-6M21 24v-6" stroke="#fff" stroke-width="4" stroke-miterlimit="2" stroke-linecap="round" stroke-linejoin="round"/><path d="M14 44v-8M36 44v-8M23 18H12M44 44H6a2 2 0 0 1-2-2v-1.37" stroke="#000" stroke-width="4" stroke-miterlimit="2" stroke-linecap="round" stroke-linejoin="round"/></svg>

<svg viewBox="0 0 48 48" fill="none" xmlns="http://www.w3.org/2000/svg" height="1em" width="1em">
  <path d="M44 4H28V12H44V4Z" stroke="black" stroke-width="4" stroke-miterlimit="2" stroke-linecap="round" stroke-linejoin="round"/>
  <path d="M44 12V34C44 35.11 43.11 36 42 36H8C5.79 36 4 34.21 4 32V26C4 21.58 7.58 18 12 18H28V12H44Z" fill="#2F88FF" stroke="black" stroke-width="4" stroke-miterlimit="2" stroke-linecap="round" stroke-linejoin="round"/>
  <path d="M14 24V18" stroke="white" stroke-width="4" stroke-miterlimit="2" stroke-linecap="round" stroke-linejoin="round"/>
  <path d="M21 24V18" stroke="white" stroke-width="4" stroke-miterlimit="2" stroke-linecap="round" stroke-linejoin="round"/>
  <path d="M14 44V36" stroke="black" stroke-width="4" stroke-miterlimit="2" stroke-linecap="round" stroke-linejoin="round"/>
  <path d="M36 44V36" stroke="black" stroke-width="4" stroke-miterlimit="2" stroke-linecap="round" stroke-linejoin="round"/>
  <path d="M23 18L12 18" stroke="black" stroke-width="4" stroke-miterlimit="2" stroke-linecap="round" stroke-linejoin="round"/>
  <path d="M44 43.9999H6C4.89 43.9999 4 43.0999 4 41.9999V40.6299" stroke="black" stroke-width="4" stroke-miterlimit="2" stroke-linecap="round" stroke-linejoin="round"/>
</svg>
